X:1
T:Title
%%score { ( 1 3 4 ) | ( 2 5 ) }
L:1/8
M:4/4
K:Bb
V:1 treble nm="Grand Piano"
V:3 treble 
V:4 treble 
V:2 bass 
V:5 bass 
V:1
 z4[Q:1/4=106] [DB]2 [DB]2 | [DB]4[K:bass][K:treble] z4 | [B,EG]2 [A,EF]2 [CEG]2 [CEA]2 | %3
 [B,EG]2 [A,EF]2 [A,EG]2 [A,CA]2 |[M:2/4] [_DG]2 [F,=DF]2 | [B,DB]2 [CDA]2 |[M:4/4] [C=EA]4 D2 z2 | %7
 [A,CF]4 F2 F2 | A2 G2 F2 GA |[M:2/4] B2 F2 | F2 F2 |[M:4/4] A2 G2 F2 GA | [DB]2 [DF]2 d2 d2 | %13
 d6 z2 |[M:2/4] c4 | F2 F2 |[M:4/4] f8- | f8- | f8- | f4 z4 | ^f4 f4 | f4 f4 | g6 z2 | %23
[M:2/4] [DFB]4 |] %24
V:2
 z4 [B,,F,]2 [B,,F,]2 | F,3 [F,D] [B,,F,]2 B,,2 | C,2 C,2 F,2 F,2 | F,2 F,2 F,,2 F,,2 | %4
[M:2/4] [B,,=E,]2 B,,2 | G,,2 A,,B,, |[M:4/4] C,4 z2 =E2 | F,4 F,2 F,2 | %8
 [E,F,C]2 [E,G,C]2 [E,A,C]2 [E,F,C]2 |[M:2/4] [D,F,B,]2 [D,F,B,]2 | [D,B,D]2 [D,B,]2 | %11
[M:4/4] [F,CE]2 [F,B,E]2 [F,A,E]2 [F,E]2 | [B,,F,]2 [B,,B,]2[K:treble] [B,DF]2 [A,CF]2 | %13
 [G,B,F]4[K:bass] [C,B,]4 |[M:2/4] [F,F]4 | F,2 F,2 |[M:4/4] z4 z2 .B,2 | %17
 [D,F,B,]2 [D,B,]2 [B,,B,]2 .[D,C]2 | [F,CE]2 [F,B,E]2 [F,A,E]2 [E,F]-[E,CF] | %19
 D,2[K:treble] [F,CF]2 [B,DFB]2 [B,,DFBd]2 | [B,,^F,D^FB_d]4 [B,,F,DFBd]4 | %21
 [B,,F,B,DFBd]2 [D,B,]2 [F,CF]2 [F,B,D]2 | [F,E]2 [F,E]2 [F,E]2 [F,E]2 |[M:2/4] [B,,F,B,]4 |] %24
V:3
 x8 | z2[K:bass] z[K:treble] A [DA]2 [B,DG]2 | x8 | x8 |[M:2/4] x4 | x4 |[M:4/4] z4 [B,G]4 | x8 | %8
 x8 |[M:2/4] x4 | x4 |[M:4/4] x8 | x8 | z4 z2 c2 |[M:2/4] z2 A,2 | x4 |[M:4/4] A2 G2 F2 GA | %17
 B2 F2 [DF]2 z B, | A2 G2 F2 GA | [B,FB]2 A2 f2 f2 | x8 | z2 [FB]2 c2 [FBd]2 | %22
 [Ad]2 [A=B]2 [Ac]2 [Acf]2 |[M:2/4] x4 |] %24
V:4
 x8 | z2[K:bass] F,,2[K:treble] z4 | x8 | x8 |[M:2/4] x4 | x4 |[M:4/4] x8 | x8 | x8 |[M:2/4] x4 | %10
 x4 |[M:4/4] x8 | x8 | z4 =E4 |[M:2/4] x4 | x4 |[M:4/4] x8 | z4 z2 F2 | x8 | x8 | x8 | x8 | x8 | %23
[M:2/4] x4 |] %24
V:5
 x8 | B,,2 z2 z4 | x8 | x8 |[M:2/4] x4 | x4 |[M:4/4] z4 C,4 | x8 | x8 |[M:2/4] x4 | x4 | %11
[M:4/4] x8 | x4[K:treble] x4 | x4[K:bass] x4 |[M:2/4] B,2 z2 | x4 | %16
[M:4/4] [E,F,C]2 [E,F,B,]2 [E,F,A,]2 [E,F,]-[E,F,C] | x8 | z4 z2 .B,2 | x2[K:treble] x6 | x8 | x8 | %22
 x8 |[M:2/4] x4 |] %24

